packages/foundations/assets/icons/functional/images/business & payment/shopping_cart_disabled.svg

<svg xmlns="http://www.w3.org/2000/svg" width="32" height="32" fill="none"><path fill="#1A1C1F" fill-rule="evenodd" d="M3.12 2.955c-.723.32-.82 1.299-.171 1.729.211.139.24.143 1.238.169.999.026 1.026.03 1.238.171.147.097.262.236.353.427.101.212.544 2.276 1.78 8.294l1.646 8.012-1.776 1.775c-1.921 1.92-1.975 1.99-1.921 2.468.075.67.828 1.083 1.415.777.114-.059 4.939-4.848 11.326-11.24C27.406 6.371 29.387 4.363 29.441 4.194a1 1 0 0 0-.829-1.296c-.461-.063-.566.014-2.132 1.581L25.041 5.92h-8.544c-8.09 0-8.545-.005-8.57-.093a21 21 0 0 1-.137-.563c-.06-.258-.171-.6-.247-.76-.363-.767-1.088-1.339-1.958-1.544-.444-.105-2.232-.108-2.465-.005m24.527 6.017-1.286 1.295-.57 2.233c-.313 1.229-.616 2.325-.672 2.436-.132.258-.346.409-.673.474-.143.028-1.015.127-1.939.219l-1.68.168-1.132 1.126a46 46 0 0 0-1.12 1.134c.035.028 6.291-.669 6.492-.723.704-.189 1.512-.832 1.852-1.474.242-.456 2.054-7.528 2.03-7.921l-.016-.261zm-8.874 3.211-4.293 4.291-2.123.222c-1.167.123-2.133.213-2.146.2s-.42-1.95-.905-4.305c-.484-2.354-.902-4.374-.928-4.489l-.047-.209h14.736zm-7.198 7.202c-.365.366-.672.656-.683.644a15 15 0 0 1-.258-1.103 23 23 0 0 1 .779-.099c.426-.051.785-.096.8-.1.014-.004-.273.292-.638.658m2.158 3.495-1.013 1.015 5.76-.014 5.76-.014.241-.142c.385-.226.583-.673.475-1.073-.083-.307-.231-.499-.494-.64l-.222-.119-4.747-.014-4.746-.015zm-2.536 3.056c-.731.207-1.192.834-1.186 1.612.003.453.172.816.532 1.145.655.598 1.591.566 2.234-.076.962-.963.338-2.611-1.032-2.724a1.9 1.9 0 0 0-.548.043m11.55-.022c-.886.233-1.432 1.18-1.18 2.045.341 1.175 1.827 1.549 2.697.678.44-.439.583-1.025.401-1.638-.107-.36-.515-.811-.875-.966-.295-.127-.797-.184-1.043-.119"/></svg>

<svg width="32" height="32" viewBox="0 0 32 32" fill="none" xmlns="http://www.w3.org/2000/svg"><path d="M3.120 2.955 C 2.397 3.275,2.300 4.254,2.949 4.684 C 3.160 4.823,3.189 4.827,4.187 4.853 C 5.186 4.879,5.213 4.883,5.425 5.024 C 5.572 5.121,5.687 5.260,5.778 5.451 C 5.879 5.663,6.322 7.727,7.558 13.745 L 9.204 21.757 7.428 23.532 C 5.507 25.452,5.453 25.522,5.507 26.000 C 5.582 26.670,6.335 27.083,6.922 26.777 C 7.036 26.718,11.861 21.929,18.248 15.537 C 27.406 6.371,29.387 4.363,29.441 4.194 C 29.629 3.596,29.238 2.984,28.612 2.898 C 28.151 2.835,28.046 2.912,26.480 4.479 L 25.041 5.920 16.497 5.920 C 8.407 5.920,7.952 5.915,7.927 5.827 C 7.912 5.775,7.850 5.522,7.790 5.264 C 7.730 5.006,7.619 4.664,7.543 4.504 C 7.180 3.737,6.455 3.165,5.585 2.960 C 5.141 2.855,3.353 2.852,3.120 2.955 M27.647 8.972 L 26.361 10.267 25.791 12.500 C 25.478 13.729,25.175 14.825,25.119 14.936 C 24.987 15.194,24.773 15.345,24.446 15.410 C 24.303 15.438,23.431 15.537,22.507 15.629 L 20.827 15.797 19.695 16.923 C 19.073 17.542,18.569 18.052,18.575 18.057 C 18.610 18.085,24.866 17.388,25.067 17.334 C 25.771 17.145,26.579 16.502,26.919 15.860 C 27.161 15.404,28.973 8.332,28.949 7.939 L 28.933 7.678 27.647 8.972 M18.773 12.183 L 14.480 16.474 12.357 16.696 C 11.190 16.819,10.224 16.909,10.211 16.896 C 10.198 16.883,9.791 14.946,9.306 12.591 C 8.822 10.237,8.404 8.217,8.378 8.102 L 8.331 7.893 15.699 7.893 L 23.067 7.893 18.773 12.183 M11.575 19.385 C 11.210 19.751,10.903 20.041,10.892 20.029 C 10.872 20.010,10.623 18.941,10.634 18.926 C 10.638 18.922,10.988 18.877,11.413 18.827 C 11.839 18.776,12.198 18.731,12.213 18.727 C 12.227 18.723,11.940 19.019,11.575 19.385 M13.733 22.880 L 12.720 23.895 18.480 23.881 L 24.240 23.867 24.481 23.725 C 24.866 23.499,25.064 23.052,24.956 22.652 C 24.873 22.345,24.725 22.153,24.462 22.012 L 24.240 21.893 19.493 21.879 L 14.747 21.864 13.733 22.880 M11.197 25.936 C 10.466 26.143,10.005 26.770,10.011 27.548 C 10.014 28.001,10.183 28.364,10.543 28.693 C 11.198 29.291,12.134 29.259,12.777 28.617 C 13.739 27.654,13.115 26.006,11.745 25.893 C 11.575 25.879,11.332 25.898,11.197 25.936 M22.747 25.914 C 21.861 26.147,21.315 27.094,21.567 27.959 C 21.908 29.134,23.394 29.508,24.264 28.637 C 24.704 28.198,24.847 27.612,24.665 26.999 C 24.558 26.639,24.150 26.188,23.790 26.033 C 23.495 25.906,22.993 25.849,22.747 25.914 " fill="#1A1C1F" stroke="none" fill-rule="evenodd"></path></svg>
